!!!OTL: Alleluia chwalcie pana Boga
**kern
*staff1
=1-
*clefF4
*k[]
2F\
2C/
1F
=2
1D
2D\
2C/
=3
2D\
2AA/
1D
=4
2AA/
1A
2E\
=5
1E
1AA
=6
!!linebreak:original
2A\
2F\
2G\
2D\
=7
1F
2F\
1C
2D\
1AA
1D
=8
!!linebreak:original
2D\
2C/
2GG/
2D\
4C/
4D\
4E\
4F\
=9
2G\
1D
2E\
=10
1F
1G
=11
!!linebreak:original
2C/
2C/
2AA/
2D\
=12
1AA
2D\
2E\
=13
2C/
2D\
1AA
=14
1D
1C
=15
2D\
1F
4E\
4D\
=16
2C/
2D\
1AA
=17
0D
==
*-
!!title: @{OTL}, @{GTL}, ed. @{ENC}
!!!pag:
!!!GTL: Hymnbook D
!!!EFL: 
!!!YEM: Creative Commons CC/BY/NC/SA 4.0
!!!ENC: Marcin Konik
!!!END: 2015-0m-dd
!!!EED: Marcin Konik
!!!EEV: 
!!!ONB: Encoded in vim by Marcin Konik
!!!CharacterEncoding: utf-8
!!!RDF**kern: l=long note in original notation
!!!RDF**kern: i=editorial accidental
!!muse2ps: z14jc180F
!!!COM: Anonim
!!!CDT: [?]
!!!TXO: Polish
!!!ODT: 
!!!GTL: Hymnbook D
!!!ARL: Opactwo św. Wojciecha, Staniątki 
!!!voices:	1
